!!!Rep U0184
!!!Isim(Name): Gam Zedeler Gam Vurur
!!!Yore(Region): Elazığ
!!!Makam: Hicaz
!!!Donanim(Key Signature): b- c#
!!!Usul: 10/8
**kern	**Dcent
*staff1	*.
=1-	=1-
*clefG2	*.
*k[b-c#]	*.
*M10/8	*.
4r	.
8r	.
4f	0
4g	0
4a	0
8b-	0
=2	=2
4cc#	0
8b-	0
8cc#	0
8b-	0
8a	0
8dd	0
4a	0
8a	0
=3	=3
4a	0
8a	0
4f#	50
4g	0
4a	0
8b-	0
=4	=4
!!linebreak:default
4cc#	0
8b-	0
8cc#	0
8b-	0
8b-	0
8dd	0
4a	0
8a	0
=5	=5
4a	0
8dd	0
4dd	0
8dd	0
8ee	0
4cc#	0
8b-	0
=6	=6
4b-	0
8cc#	0
8b-	0
8cc#	0
8b-	0
8dd	0
4a	0
8a	0
=7	=7
!!linebreak:default
8cc#	0
8dd	0
8ee	0
8ee	0
8dd	0
8dd	0
8ee	0
4cc#	0
8b-	0
=8	=8
4b-	0
8cc#	0
8b-	0
8cc#	0
8b-	0
8dd	0
4a	0
8a	0
8ee	0
8ee	0
8dd	0
8ee	0
8dd	0
16dd	0
16cc#	0
16dd	0
16ee	0
4cc#	0
8b-	0
=9	=9
!!linebreak:default
4b-	0
8cc#	0
8b-	0
8cc#	0
8b-	0
8dd	0
4a	0
8a	0
=10	=10
4dd	0
8dd	0
4dd	0
4dd	0
4dd	0
8dd	0
=11	=11
4dd	0
8dd	0
4dd	0
4dd	0
4dd	0
8dd	0
=12	=12
8cc#	0
8dd	0
8ee	0
8ee	0
8dd	0
8dd	0
8cc#	0
4dd	0
8dd	0
=13	=13
!!linebreak:default
8cc#	0
8dd	0
8ee	0
8ee	0
8dd	0
8dd	0
8cc#	0
4dd	0
8dd	0
=14	=14
8cc#	0
8dd	0
8ee	0
8ee	0
8dd	0
16dd	0
16cc#	0
16dd	0
16ee	0
4cc#	0
8b-	0
=15	=15
4cc#	0
8b-	0
4cc#	0
16b-	0
16a	0
8b-	0
4cc#	0
8b-	0
=16	=16
!!linebreak:default
4r	.
8r	.
4dd	0
8dd	0
8ee	0
4cc#	0
8b-	0
=17	=17
4cc#	0
8b-	0
4cc#	0
16b-	0
16a	0
8b-	0
4cc#	0
8b-	0
=18	=18
4r	.
8r	.
4dd	0
8dd	0
8ee	0
4cc#	0
8b-	0
=19	=19
!!linebreak:default
4cc#	0
8b-	0
8cc#	0
8b-	0
8b-	0
8dd	0
4a	0
8a	0
=20!:	=20!:
4a	0
8a	0
4f#	50
4g	0
4a	0
8b-	0
=21	=21
!!pagebreak:default
4cc#	0
8b-	0
8cc#	0
8b-	0
8b-	0
8dd	0
4a	0
8.a	0
=21b	=21b
4cc#	0
8b-	0
8cc#	0
8b-	0
8b-	0
8dd	0
4.a	0
=22	=22
*MXX	*.
16ddQ	0
16ccQ	0
8ddQ	0
16ddQ	0
8.ddQ;	0
!!linebreak:default
=23	=23
*M10/8	*.
4gg	0
8gg	0
4gg	0
4gg	0
4gg	0
8gg	0
=24	=24
4gg	0
8gg	0
4gg	0
4gg	0
4gg	0
8gg	0
=25	=25
8gg	0
8ff	0
8aa	0
8gg	0
8ff	0
8gg	0
8ff	0
4gg	0
8r	.
=26	=26
8gg	0
8ff	0
8aa	0
8gg	0
8ff	0
8gg	0
8ff	0
4gg	0
8r	.
!!linebreak:default
=27!:	=27!:
8gg	0
8ff	0
8aa	0
8gg	0
8ff	0
8ffn	0
8ee	0
8gg	0
8ff	0
8ee	0
=28	=28
8ee	0
8dd	0
8ff	0
8ee	0
8dd	0
8dd	0
8cc#	0
4dd	0
8r	.
=29:!:	=29:!:
8aa	0
8ff#	50
4gg	0
8ff#	50
8aa	0
8ff#	50
4ff#	50
8ee	0
=30	=30
!!linebreak:default
8gg	0
8ee	0
4ee	0
8dd	0
8ee	0
8cc#	0
4dd	0
8.r	.
=30b:!	=30b:!
8gg	0
8ee	0
4ee	0
8dd	0
8ee	0
8cc#	0
4.dd	0
=31	=31
*MXX	*.
16ggQ	0
16ffQ	0
8ggQ	0
16ggQ	0
8.ggQ;	0
*-	*-
!! Uzun Hava Humdrum Bilgi Bankasi (Uzun Hava Humdrum Database)
!! 
!! Sertan Senturk, Parag Chordia & Erdal Tugcular
!! Georgia Tech Center for Music Technology, 2011